resources/haticons/SVG/laptop_windows.svg

<!-- Generated by IcoMoon.io -->
<svg version="1.1" xmlns="http://www.w3.org/2000/svg" width="24" height="24" viewBox="0 0 24 24">
<title>laptop_windows</title>
<path d="M3.984 5.016v9.984h16.031v-9.984h-16.031zM20.016 18h3.984v2.016h-24v-2.016h3.984v-0.984q-0.797 0-1.383-0.609t-0.586-1.406v-9.984q0-0.797 0.586-1.406t1.383-0.609h16.031q0.797 0 1.383 0.609t0.586 1.406v9.984q0 0.797-0.586 1.406t-1.383 0.609v0.984z"></path>
</svg>

<svg xmlns="http://www.w3.org/2000/svg" width="24" height="24"><path d="M3.984 5.016V15h16.031V5.016H3.984zM20.016 18H24v2.016H0V18h3.984v-.984q-.797 0-1.383-.609t-.586-1.406V5.017q0-.797.586-1.406t1.383-.609h16.031q.797 0 1.383.609t.586 1.406v9.984q0 .797-.586 1.406t-1.383.609V18z"/></svg>
